project/src/img/pedestrian.svg

<svg width="34" height="42" viewBox="0 0 34 42" fill="none" xmlns="http://www.w3.org/2000/svg">
<path fill-rule="evenodd" clip-rule="evenodd" d="M19.4924 0.166626H14.5251C12.9597 0.166626 11.6867 1.41248 11.6867 2.94438V5.72213L11.6868 5.736V6.41668C11.6868 7.19763 11.9517 7.9192 12.398 8.4999H10.0839C10.6422 7.8391 10.9781 6.99196 10.9781 6.06944C10.9781 3.96324 9.22752 2.25002 7.07523 2.25002C4.92295 2.25002 3.1724 3.96324 3.1724 6.06944C3.1724 7.20757 3.68358 8.23095 4.49309 8.93126C3.69978 9.42431 3.1724 10.2918 3.1724 11.2778V14.75H2.32091C1.22531 14.75 0.334024 15.6223 0.334024 16.6944V19.75C0.334024 20.8222 1.22531 21.6944 2.32091 21.6944H3.1724V21.6945C3.1724 23.2265 4.44545 24.4723 6.01081 24.4723H8.13964C8.65581 24.4723 9.14019 24.3368 9.55764 24.1003V24.4721C9.55764 24.4804 9.55779 24.4887 9.55808 24.4969V30.9659L3.62177 33.5472C3.60196 33.5548 3.58244 33.5634 3.56327 33.5728L0.724857 34.9617C0.556713 35.0443 0.428983 35.1888 0.369359 35.3631C0.309735 35.5381 0.323955 35.7298 0.408359 35.8944L2.85652 40.6778C3.219 41.3903 3.94846 41.8333 4.76165 41.8333H5.13062C5.94382 41.8333 6.67477 41.3895 7.03518 40.6764C7.33047 40.0958 7.33047 39.4027 7.0346 38.8215L6.27187 37.3265L12.3434 34.8353C13.6611 34.2971 14.5176 33.0471 14.5254 31.6457V28.5624C14.5254 28.2214 14.8086 27.9443 15.1498 27.9443C15.3819 27.9464 15.5927 28.0714 15.7097 28.2853L21.7027 38.6839L23.1156 41.4492C23.2405 41.693 23.4909 41.8333 23.7514 41.8333C23.8586 41.8333 23.9664 41.8097 24.0679 41.7596L28.3255 39.6763L28.326 39.6759C28.3263 39.6757 28.3266 39.6755 28.327 39.6755C29.4552 39.1208 29.9157 37.7693 29.3515 36.6596C28.7838 35.5547 27.403 35.1034 26.2711 35.6561L25.4866 36.04L19.4921 24.3073V20.0984C20.2565 20.6762 21.2031 21 22.1985 21H22.2099C23.3878 21 24.5367 20.5298 25.3599 19.7132L26.8169 18.2873L32.2846 41.2973L33.6662 40.9829L27.9984 17.131L28.8654 16.2826C29.7275 15.4382 29.8261 14.0805 29.0945 13.1243C29.0222 13.0306 28.9433 12.9423 28.8589 12.8597C28.3941 12.4077 27.7789 12.1597 27.1239 12.1597H27.1147C27.0159 12.16 26.918 12.166 26.8213 12.1775L26.5702 11.1206L25.1886 11.4351L25.5023 12.7552C25.4598 12.7917 25.4184 12.8298 25.3783 12.8694L22.3794 15.8042L19.4921 12.4134V11.9721C19.4921 10.6704 18.7564 9.53373 17.6706 8.93937C18.3553 8.30597 18.7833 7.4093 18.7837 6.41668V3.64511C18.7848 3.52175 18.7787 3.39848 18.7654 3.27592C19.6228 2.79747 20.202 1.89433 20.202 0.861043C20.2021 0.477742 19.8848 0.166626 19.4924 0.166626ZM7.10081 8.4999H7.04966C5.69187 8.48642 4.59156 7.40142 4.59156 6.06944C4.59156 4.72919 5.70563 3.63886 7.07523 3.63886C8.44476 3.63886 9.5589 4.72911 9.5589 6.06944C9.5589 7.40142 8.4586 8.48642 7.10081 8.4999ZM10.5984 9.88881H11.1056L10.7219 10.1232C10.6843 10.0427 10.6431 9.96454 10.5984 9.88881ZM27.8619 15.3007L27.6198 15.5376L27.1472 13.5489C27.4153 13.5546 27.668 13.6589 27.8584 13.8444C27.8945 13.8798 27.9293 13.9181 27.9591 13.9576C28.27 14.3646 28.2288 14.9417 27.8619 15.3007ZM26.4382 16.6939L25.8796 14.3432L22.8335 17.3236C22.693 17.4618 22.4979 17.5341 22.2999 17.5264C22.1005 17.5175 21.9146 17.4271 21.7862 17.2771L19.4921 14.5832V18.0091L19.6823 18.284C20.2478 19.1173 21.1867 19.6111 22.2007 19.6111H22.2092C23.011 19.6111 23.7909 19.2916 24.3529 18.7347L26.4382 16.6939ZM16.5587 11.2507C16.6194 10.7911 16.5465 10.3348 16.3541 9.9276C17.3324 10.1152 18.073 10.9608 18.073 11.9721V23.7777H10.9769V22.5512L11.9516 20.6433L13.4506 21.6813C13.8728 21.9584 14.3518 22.0911 14.8259 22.0911C15.5824 22.0911 16.3267 21.7529 16.81 21.1174C16.8405 21.0779 16.8688 21.039 16.8944 21.0007C17.2591 20.4605 17.3876 19.8132 17.2549 19.1792C17.1221 18.5452 16.7453 17.9994 16.2167 17.6576L13.9581 16.068L15.9141 12.6015L15.907 12.5977C16.2631 12.2298 16.4906 11.7629 16.5587 11.2507ZM13.3933 14.1958L12.2599 14.8729L12.7977 15.2514L13.3933 14.1958ZM7.48848 17.5528L9.55764 18.9856V20.3054H4.59231V11.2778C4.59231 10.5119 5.2288 9.88892 6.01156 9.88892H8.14039C8.72299 9.88892 9.24597 10.2382 9.45885 10.7647L9.47922 10.882L7.50411 12.0882C6.56668 12.7 6.00827 13.7244 6.01035 14.8243C6.00894 15.9278 6.56668 16.9514 7.48848 17.5528ZM4.59231 21.6943V21.6945C4.59231 22.4605 5.22888 23.0834 6.01156 23.0834H8.14039C8.8977 23.0834 9.5181 22.5003 9.55764 21.7687V21.6943H4.59231ZM24.2173 36.6611L18.3441 25.1666H10.9773V31.4166C10.9773 31.6916 10.812 31.9395 10.5558 32.0513L4.8477 34.534L5.63819 36.0805L11.7955 33.5541C12.5874 33.2305 13.1012 32.4805 13.1062 31.6416V28.5624C13.1062 27.4555 14.0258 26.5555 15.1569 26.5555C15.9147 26.5631 16.6009 26.9701 16.9536 27.6173L22.6171 37.4437L24.2173 36.6611ZM1.99642 35.8936L3.56413 35.1258L3.98375 35.9471L5.76586 39.4409C5.8644 39.6346 5.8644 39.8653 5.76578 40.0589C5.64512 40.2964 5.40172 40.4444 5.13071 40.4444H4.76174C4.49139 40.4444 4.24799 40.2964 4.12733 40.0589L4.12707 40.058C4.12689 40.0575 4.12666 40.057 4.12666 40.0562L1.99642 35.8936ZM13.1068 3.63266V4.04484L14.733 2.45341C14.8664 2.32288 15.0467 2.24996 15.2347 2.24996H17.3636C17.888 2.24996 18.3472 1.97009 18.592 1.55546H14.5251C13.7424 1.55546 13.1059 2.17843 13.1059 2.94438V3.10962L13.1735 3.12778C13.1281 3.29168 13.1054 3.46111 13.1068 3.63266ZM13.1068 6.41668V6.0087L15.5285 3.63879H17.3636H17.3645V3.63893V6.41668C17.3645 7.55785 16.4217 8.4879 15.2584 8.4999H15.2129C14.0497 8.4879 13.1068 7.55785 13.1068 6.41668ZM3.1724 16.1389V20.3056H2.32091C2.00799 20.3056 1.75319 20.0563 1.75319 19.75V16.6944C1.75319 16.3882 2.0079 16.1389 2.32091 16.1389H3.1724ZM24.0677 40.2069L27.6903 38.4339C28.1211 38.2208 28.297 37.7041 28.0821 37.2811C27.8663 36.8611 27.337 36.6881 26.9048 36.8992L23.2836 38.6715L24.0677 40.2069ZM7.07477 5.02763C6.48792 5.02763 6.01035 5.495 6.01035 6.0693C6.01035 6.6436 6.48792 7.11096 7.07477 7.11096C7.66161 7.11096 8.13918 6.6436 8.13918 6.0693C8.13918 5.495 7.66161 5.02763 7.07477 5.02763ZM7.07477 6.41655C6.87893 6.41655 6.71993 6.26103 6.71993 6.0693C6.71993 5.87765 6.87885 5.72205 7.07477 5.72205C7.2706 5.72205 7.4296 5.87757 7.4296 6.0693C7.4296 6.26103 7.2706 6.41655 7.07477 6.41655ZM15.6746 20.2861C15.3382 20.7278 14.7074 20.8341 14.2547 20.5375L8.29178 16.4084C7.75109 16.0549 7.42819 15.4646 7.42961 14.825C7.42819 14.1882 7.75034 13.598 8.27332 13.2556L13.501 10.0632C13.6806 9.94588 13.8842 9.88892 14.0865 9.88892C14.4108 9.88892 14.7315 10.0355 14.9422 10.3125C15.1133 10.5299 15.1878 10.8 15.1515 11.0723C15.1154 11.3438 14.9734 11.5862 14.7527 11.7521L10.6079 14.2334C10.4042 14.3549 10.2772 14.5675 10.268 14.8001C10.2595 15.0327 10.3702 15.2542 10.5632 15.3903L15.412 18.8021C15.6476 18.9542 15.8087 19.1875 15.8654 19.4583C15.9215 19.7292 15.8669 20.0049 15.6746 20.2861Z" fill="black"/>
</svg>

<svg width="34" height="42" fill="none" xmlns="http://www.w3.org/2000/svg"><path fill-rule="evenodd" clip-rule="evenodd" d="M19.492.167h-4.967c-1.565 0-2.838 1.245-2.838 2.777v3.472c0 .782.265 1.503.711 2.084h-2.314c.558-.66.894-1.508.894-2.43 0-2.107-1.75-3.82-3.903-3.82-2.152 0-3.903 1.713-3.903 3.82 0 1.138.512 2.16 1.321 2.861a2.765 2.765 0 0 0-1.32 2.347v3.472H2.32c-1.096 0-1.987.872-1.987 1.944v3.056c0 1.072.891 1.944 1.987 1.944h.851c0 1.533 1.273 2.778 2.839 2.778H8.14c.516 0 1-.135 1.418-.372V30.966l-5.936 2.581a.714.714 0 0 0-.059.026L.725 34.962a.701.701 0 0 0-.356.401.682.682 0 0 0 .04.531l2.448 4.784a2.121 2.121 0 0 0 1.905 1.155h.369c.813 0 1.544-.444 1.904-1.157a2.05 2.05 0 0 0 0-1.855l-.763-1.494 6.071-2.492c1.318-.538 2.175-1.788 2.182-3.19v-3.083c0-.34.284-.618.625-.618a.64.64 0 0 1 .56.341l5.993 10.399 1.413 2.765a.712.712 0 0 0 .952.31l4.258-2.083h.001a2.233 2.233 0 0 0 1.024-3.016c-.567-1.105-1.948-1.557-3.08-1.004l-.784.384-5.995-11.733v-4.209a4.483 4.483 0 0 0 2.706.902h.012c1.178 0 2.327-.47 3.15-1.287l1.457-1.426 5.468 23.01 1.381-.314-5.668-23.852.867-.848a2.392 2.392 0 0 0-.006-3.423 2.471 2.471 0 0 0-1.735-.7h-.01a2.55 2.55 0 0 0-.293.018l-.25-1.057-1.382.314.313 1.32a2.426 2.426 0 0 0-.124.114l-2.999 2.935-2.887-3.39v-.442c0-1.302-.736-2.438-1.821-3.033a3.43 3.43 0 0 0 1.113-2.522V3.645a3.16 3.16 0 0 0-.019-.37A2.77 2.77 0 0 0 20.202.862a.702.702 0 0 0-.71-.694zM7.101 8.5H7.05C5.692 8.486 4.592 7.4 4.592 6.07c0-1.34 1.114-2.431 2.483-2.431 1.37 0 2.484 1.09 2.484 2.43 0 1.332-1.1 2.417-2.458 2.43zm3.497 1.389h.508l-.384.234a2.753 2.753 0 0 0-.124-.234zM27.862 15.3l-.242.237-.473-1.99a1.046 1.046 0 0 1 .812.41c.311.407.27.984-.097 1.343zm-1.424 1.393l-.558-2.35-3.046 2.98a.722.722 0 0 1-1.048-.047l-2.294-2.694v3.426l.19.275a3.032 3.032 0 0 0 2.519 1.327h.008c.802 0 1.582-.32 2.144-.876l2.085-2.041zm-9.88-5.443c.061-.46-.011-.916-.204-1.323.978.187 1.719 1.033 1.719 2.044v11.806h-7.096V22.55l.975-1.908 1.499 1.038a2.5 2.5 0 0 0 1.375.41 2.486 2.486 0 0 0 2.068-1.09c.365-.54.494-1.188.36-1.822a2.393 2.393 0 0 0-1.037-1.521l-2.259-1.59 1.956-3.467-.007-.003c.356-.368.584-.835.652-1.347zm-3.165 2.945l-1.133.677.538.378.595-1.055zm-5.905 3.357l2.07 1.433v1.32H4.592v-9.028c0-.766.637-1.39 1.42-1.39H8.14c.583 0 1.106.35 1.319.877l.02.117-1.975 1.206a3.259 3.259 0 0 0-1.494 2.736 3.251 3.251 0 0 0 1.478 2.729zm-2.896 4.141c0 .767.637 1.39 1.42 1.39H8.14c.758 0 1.378-.584 1.418-1.315v-.075H4.592zm19.625 14.967l-5.873-11.494h-7.367v6.25a.694.694 0 0 1-.421.634l-5.708 2.483.79 1.547 6.158-2.527a2.082 2.082 0 0 0 1.31-1.912v-3.08c0-1.107.92-2.007 2.05-2.007a2.06 2.06 0 0 1 1.798 1.062l5.663 9.827 1.6-.783zm-22.22-.767l1.567-.768.42.821 1.782 3.494a.683.683 0 0 1 0 .618.707.707 0 0 1-.635.385h-.37a.707.707 0 0 1-.634-.385v-.001-.002l-2.13-4.162zm11.11-32.261v.412l1.626-1.592a.717.717 0 0 1 .502-.203h2.129c.524 0 .983-.28 1.228-.695h-4.067c-.783 0-1.42.623-1.42 1.39v.165l.069.018a1.833 1.833 0 0 0-.067.505zm0 2.784v-.408l2.421-2.37h1.836v2.778c0 1.14-.942 2.07-2.106 2.083h-.045c-1.163-.012-2.106-.942-2.106-2.083zm-9.935 9.722v4.167h-.851a.563.563 0 0 1-.568-.556v-3.056c0-.306.255-.555.568-.555h.851zm20.896 24.068l3.622-1.773a.855.855 0 0 0 .392-1.153.89.89 0 0 0-1.177-.382l-3.621 1.773.784 1.535zM7.075 5.027c-.587 0-1.065.468-1.065 1.042 0 .575.478 1.042 1.065 1.042s1.064-.467 1.064-1.042c0-.574-.477-1.041-1.064-1.041zm0 1.39a.351.351 0 0 1-.355-.348c0-.191.159-.347.355-.347.196 0 .355.156.355.347a.351.351 0 0 1-.355.348zm8.6 13.87a1.068 1.068 0 0 1-1.42.25l-5.963-4.129a1.883 1.883 0 0 1-.019-3.152l5.228-3.193a1.073 1.073 0 0 1 1.441.25 1.014 1.014 0 0 1-.19 1.44l-4.144 2.48a.692.692 0 0 0-.34.567.692.692 0 0 0 .295.59l4.849 3.412c.236.152.397.386.453.656.056.271.002.547-.19.828z" fill="#000"/></svg>
